assets/img/braze_icons/speedometer-04.svg

<svg fill="none" height="24" viewBox="0 0 24 24" width="24" xmlns="http://www.w3.org/2000/svg"><path clip-rule="evenodd" d="m12 1c-6.07513 0-11 4.92487-11 11 0 6.0751 4.92487 11 11 11 6.0751 0 11-4.9249 11-11 0-6.07513-4.9249-11-11-11zm-6 11c0-3.31371 2.68629-6 6-6 .363 0 .7177.03212 1.0615.09344.5438.09696 1.0631-.26521 1.1601-.80892.0969-.5437-.2652-1.06306-.809-1.16002-.4592-.08189-.9313-.1245-1.4126-.1245-4.41828 0-8 3.58172-8 8 0 1.6984.53037 3.2759 1.4345 4.5721.31596.453.93931.564 1.39229.2481.45297-.316.56405-.9393.24808-1.3923-.67761-.9715-1.07487-2.1518-1.07487-3.4279zm13.8159-1.7133c-.1178-.53961-.6507-.88152-1.1903-.76372-.5396.11781-.8815.65072-.7637 1.19032.0903.4136.1381.844.1381 1.2867 0 1.2761-.3973 2.4564-1.0749 3.4279-.3159.453-.2048 1.0763.2481 1.3923.453.3159 1.0764.2048 1.3923-.2481.9041-1.2962 1.4345-2.8737 1.4345-4.5721 0-.5871-.0634-1.1605-.1841-1.7133zm-2.6089-2.07959c.3905-.39053.3905-1.02369 0-1.41422-.3905-.39052-1.0237-.39052-1.4142 0l-3.2749 3.27481c-.1652-.0442-.3388-.0677-.5179-.0677-1.1046 0-2 .8954-2 2s.8954 2 2 2 2-.8954 2-2c0-.1792-.0236-.3529-.0678-.5181z" fill="#801ed7" fill-rule="evenodd"/></svg>

<svg width="24" height="24" viewBox="0 0 24 24" fill="none" xmlns="http://www.w3.org/2000/svg">
<path fill-rule="evenodd" clip-rule="evenodd" d="M12 1C5.92487 1 1 5.92487 1 12C1 18.0751 5.92487 23 12 23C18.0751 23 23 18.0751 23 12C23 5.92487 18.0751 1 12 1ZM6 12C6 8.68629 8.68629 6 12 6C12.363 6 12.7177 6.03212 13.0615 6.09344C13.6053 6.1904 14.1246 5.82823 14.2216 5.28452C14.3185 4.74082 13.9564 4.22146 13.4126 4.1245C12.9534 4.04261 12.4813 4 12 4C7.58172 4 4 7.58172 4 12C4 13.6984 4.53037 15.2759 5.4345 16.5721C5.75046 17.0251 6.37381 17.1361 6.82679 16.8202C7.27976 16.5042 7.39084 15.8809 7.07487 15.4279C6.39726 14.4564 6 13.2761 6 12ZM19.8159 10.2867C19.6981 9.74709 19.1652 9.40518 18.6256 9.52298C18.086 9.64079 17.7441 10.1737 17.8619 10.7133C17.9522 11.1269 18 11.5573 18 12C18 13.2761 17.6027 14.4564 16.9251 15.4279C16.6092 15.8809 16.7203 16.5042 17.1732 16.8202C17.6262 17.1361 18.2496 17.025 18.5655 16.5721C19.4696 15.2759 20 13.6984 20 12C20 11.4129 19.9366 10.8395 19.8159 10.2867ZM17.207 8.20711C17.5975 7.81658 17.5975 7.18342 17.207 6.79289C16.8165 6.40237 16.1833 6.40237 15.7928 6.79289L12.5179 10.0677C12.3527 10.0235 12.1791 10 12 10C10.8954 10 10 10.8954 10 12C10 13.1046 10.8954 14 12 14C13.1046 14 14 13.1046 14 12C14 11.8208 13.9764 11.6471 13.9322 11.4819L17.207 8.20711Z" fill="#801ED7"/>
</svg>
